X:1
T:Far Away
C:waltz
Z:FAR
L:1/8
M:3/4
I:linebreak $
K:D
V:1 treble
V:1
 FA |"Bm" B3 F Bd | "F#m"cA F2 FA |"Bm" B3 F Be | "A"c4 dc | "G"B3 G Bd |$
 "F#m"cA F2 de | "Bm"fe dc "F#m"BA |1 "Bm"B6 :|2  "G"B3 c de |:"D" f3 d fa | "A"ec A2 de |$ 
"D"f3 d fa | "Em"e3 c de | "Bm"fd Be "A"cA | "G"dB Gc "F#m"AF | F2 B3 A | "G"B6 :|
